**kern	**kern	**dynam
*part1	*part1	*part1
*staff2	*staff1	*
*I"Piano	*	*
*clefF4	*clefG2	*
*k[b-e-a-d-]	*k[b-e-a-d-]	*
=1	=1	=1
*^	*^	*
8r	4.C	8.ccL	4.e- 4.an	<
(8AnL	.	.	.	.
.	.	16bnK	.	.
8FJ)	.	8ccJ	.	.
*	*	*v	*v	*
=	=	=	=
8r	4.BB-	8g-XL 8cc 8ee-	[ >
(8B-L	.	8f 8b- 8dd-	.
8FJ)	.	8d-J 8f 8b-	.
=	=	=	=
8r	4.C)	4c 4en 4a-	.
(8A-L	.	.	.
8GJ)	.	8c) 8e 8g	.
=	=	=	=
8r	(4.AA-	(4A- 4c 4f	] <
(8FL	.	.	.
8CJ)	.	8A- 8c 8f	.
=	=	=	=
8r	4.AAn	4f 4dd- 4ff	.
(8AnL	.	.	.
8FJ)	.	8f 8cc 8ee-	.
=	=	=	=
8r	4BB-	4f 4b- 4dd-	[
4F	.	.	.
.	8C	8e- 8an 8cc	.
=	=	=	=
*	*	*^	*
8r	4D-	8b-L	4d- 4f	.
4F	.	8a-XJ	.	.
*	*	*v	*v	*
!	!	!LO:TX:b:i:t=rall.	!
.	8Dn)	8c-X 8f 8a-	.
*v	*v	*	*
=	=	=
8E-	4c 4e- 4a-	>
4EE-	.	.
.	8Bn 8dn 8f	.
=	=	=
*-	*-	*-
!!!system-decoration: {(s1,s2)}
